X:4
T:The Unicycle (Hornpipe)
C:Neil Brookes
Z: "Neil Brookes" <neil:brookes36.freeserve.co.uk> tradtunes 2001-01-24
N: It can be played at an erratic speed to emulate someone riding a
N:unicycle with difficulty - as I used to do.
M:2/4
L:1/16
Q:1/4=100
K:G
|GABGAFDF | E2zE2DE2 | cdecdBGB | A2^c2d3z | e^defg=dB2 | cd (3efe dBG2 | ABcABGDG | (3ABAGFG4 |
|GABGAFDF | E2zE2DE2 | cdecdBGB | A2^c2d3z | e^defg=dB2 | cd (3efe dBG2 | ABcABGDG | (3ABAGFG4 |
|AFDFABcA | GABcd4 | e^defgage | d3z3(3d/2d/2d/2z | d2A2 ABcA | BAGAB2z2 | A2dfazgz | fde^cdc=cA |
|B^ABG=AcBA | G4zGBd | e^defgage | d4z4 | e^defg=dB2 | cd (3efe dBG2 | GBdgbzaz | ze2fg2.z2 |
|GABGAFDF | E2zE2DE2 | cdecdBGB | A2^c2d3z | e^defg=dB2 | cd (3efe dBG2 | ABcABGDG | (3ABAGFG4 |
|GABGAFDF | E2zE2DE2 | cdecdBGB | A2^c2d3z | e^defg=dB2 | cd (3efe dBG2 | ABcABGDG | (3ABAGFG4 |
|AFDFABcA | GABcd4 | e^defgage | d3z3(3d/2d/2d/2z | d2A2 ABcA | BAGAB2z2 | A2dfafge | fde^cdc=cA |
|B^ABG=AcBA | GBdBg2z2 | e^defgage | d4z4 | e^defg=dB2 | cd (3efe dBG2 | GBdgb zaz | ze2fg.zG |
